X: 24420
T: Low Country Dance, The
R: slip jig
M: 9/8
K: Bminor
d2B d2e c2e|B2f f2e fBB|d2B d2e c2e|A2e c2e ecA:|
d2a aAa f2e|d2e f2e fBB|d2a aAa f2e|A2e c2e ecA|
d2a aAa f2e|d2e f2e fBB|agf gfe fed|cde A2e ecA||
d2e f2e d2f|B2f d2e fBB|d2e f2e d2e|A2e c2e ecA|
d2e f2e d2f|B2f d2e fBB|d2g fga c2B|A2e c2e ecA||
fBB f2e d2f|B2f d2e fBB|fBB fed cde|A2e c2e ecA|
fBB f2e d2f|B2f d2e fBB|agf gfe fed|cde A2e ecA||

